X:1
T: I'm a Silly Old Man
C:
R:Jig
Q:180
K:Gm
M:6/8
L:1/16
A2|B4B2 B2c2d2|c4A2 A4c2|B4G2 G2A2B2|A2F2D2 D4A2|B4B2 B2c2d2|c4A2 A4c2|B4G2 A2G2^F2|G6G4A2|
B4B2 B2c2d2|c4A2 A4c2|B4G2 G2A2B2|A2F2D2 D4A2|B4B2 B2c2d2|c4A2 A4c2|B4G2 A2G2^F2|G6G4=e2|
f4d2 d2=e2^f2|g4d2 c4A2|G4g2 g2^f2g2|a2f2d2 d4=e2|f2g2a2 g2f2e2|f2e2d2 c4A2|G4B2 A2G2^F2|G6G4=e2|
f4d2 d2=e2^f2|g4d2 c4A2|G4g2 g2^f2g2|a2f2d2 d4=e2|f2g2a2 g2f2e2|f2e2d2 c4A2|G4B2 A2G2^F2|G6G4||
